assets/img/braze_icons/credit-card-01.svg

<svg fill="none" height="24" viewBox="0 0 24 24" width="24" xmlns="http://www.w3.org/2000/svg"><g fill="#801ed7"><path d="m5.16146 4h13.67704c.5272-.00001.982-.00003 1.3565.03057.3954.03231.7886.10362 1.167.29642.5645.28762 1.0234.74656 1.311 1.31104.1928.37838.2641.7716.2964 1.16695.0306.37456.0306.82932.0306 1.35646 0 .46312-.3754.83856-.8386.83856h-20.32281c-.46314 0-.83859-.37545-.83859-.83859-.000015-.52711-.000029-.98188.03057-1.35644.0323-.39534.10362-.78856.29641-1.16694.28762-.56449.74657-1.02343 1.31105-1.31105.37838-.19279.7716-.26411 1.16695-.29641.37455-.0306.82936-.03059 1.35648-.03057z"/><path d="m2.6 11c-.56005 0-.84008 0-1.05399.109-.18816.0959-.34114.2488-.43702.437-.10899.2139-.10899.4939-.10899 1.054v3.2385c-.000015.5272-.000029.982.03057 1.3565.0323.3954.10362.7886.29641 1.167.28762.5645.74657 1.0234 1.31105 1.311.37838.1928.7716.2641 1.16694.2964.37454.0306.82924.0306 1.35632.0306h13.67731c.527 0 .9819 0 1.3564-.0306.3954-.0323.7886-.1036 1.167-.2964.5645-.2876 1.0234-.7465 1.311-1.311.1928-.3784.2641-.7716.2964-1.167.0306-.3745.0306-.8293.0306-1.3564v-3.2386c0-.5601 0-.8401-.109-1.054-.0959-.1882-.2488-.3411-.437-.437-.2139-.109-.4939-.109-1.054-.109z"/></g></svg>

<svg width="24" height="24" viewBox="0 0 24 24" fill="none" xmlns="http://www.w3.org/2000/svg">
<path d="M5.16146 4L18.8385 4C19.3657 3.99999 19.8205 3.99997 20.195 4.03057C20.5904 4.06288 20.9836 4.13419 21.362 4.32699C21.9265 4.61461 22.3854 5.07355 22.673 5.63803C22.8658 6.01641 22.9371 6.40963 22.9694 6.80498C23 7.17954 23 7.6343 23 8.16144C23 8.62456 22.6246 9 22.1614 9H1.83859C1.37545 9 1 8.62455 1 8.16141C0.999985 7.6343 0.999971 7.17953 1.03057 6.80497C1.06287 6.40963 1.13419 6.01641 1.32698 5.63803C1.6146 5.07354 2.07355 4.6146 2.63803 4.32698C3.01641 4.13419 3.40963 4.06287 3.80498 4.03057C4.17953 3.99997 4.63434 3.99998 5.16146 4Z" fill="#801ED7"/>
<path d="M2.6 11C2.03995 11 1.75992 11 1.54601 11.109C1.35785 11.2049 1.20487 11.3578 1.10899 11.546C1 11.7599 1 12.0399 1 12.6V15.8385C0.999985 16.3657 0.999971 16.8205 1.03057 17.195C1.06287 17.5904 1.13419 17.9836 1.32698 18.362C1.6146 18.9265 2.07355 19.3854 2.63803 19.673C3.01641 19.8658 3.40963 19.9371 3.80497 19.9694C4.17951 20 4.63421 20 5.16129 20L18.8386 20C19.3656 20 19.8205 20 20.195 19.9694C20.5904 19.9371 20.9836 19.8658 21.362 19.673C21.9265 19.3854 22.3854 18.9265 22.673 18.362C22.8658 17.9836 22.9371 17.5904 22.9694 17.195C23 16.8205 23 16.3657 23 15.8386V12.6C23 12.0399 23 11.7599 22.891 11.546C22.7951 11.3578 22.6422 11.2049 22.454 11.109C22.2401 11 21.9601 11 21.4 11H2.6Z" fill="#801ED7"/>
</svg>
